Origami/64x64/apps/total-war.svg

<svg width="64" height="64" version="1" xmlns="http://www.w3.org/2000/svg">
 <path d="m4.0001993 12.001705 1.9999188 41.998295h51.999889l1.999919-41.998295-0.101996 0.124995-1.898003 39.874381h-51.999889l-1.8984029-39.874381-0.1015999-0.123995z" style="opacity:.2"/>
 <g transform="matrix(1.749929,0,0,2.0999147,3.9999993,-1.597702)">
  <path d="m16 6-6.8571 9.524-9.1429-9.524l1.1429 20h29.714l1.143-20-9.143 9.524z" style="fill:#fec006"/>
 </g>
 <rect transform="matrix(.60000002 -.79999999 .60000002 .79999999 0 0)" x="15.62" y="64.37" width="5" height="5" style="fill:#e82d2d"/>
 <rect transform="matrix(.55470022 -.83205028 .55470022 .83205028 0 0)" x="2.04" y="48.44" width="7.212" height="7.212" style="fill:#e82d2d"/>
 <rect transform="matrix(.60000002 -.79999999 .60000002 .79999999 0 0)" x="-16.04" y="32.72" width="5" height="5" style="fill:#e82d2d"/>
 <g transform="matrix(1.749929,0,0,2.0999147,3.9999993,-1.597702)" style="fill:#ffffff;opacity:.2">
  <path transform="matrix(.57145176 0 0 .47620982 -2.2858066 .76084138)" d="m4 11.001953l0.0507812 1.0625 15.949219 19.9375 11.998047-20 12 20 15.949219-19.9375 0.050781-1.0625-16 20-12-20-11.998047 20-16-20z" style="fill:#ffffff"/>
 </g>
</svg>

<svg xmlns="http://www.w3.org/2000/svg" width="64" height="64" version="1">
 <path style="opacity:0.2" d="M 4.0001993,12.001705 6.0001181,54 58.000007,54 59.999926,12.001705 59.89793,12.1267 l -1.898003,39.874381 -51.9998889,0 L 4.1016352,12.1267 4.0000353,12.002705 Z"/>
 <g transform="matrix(1.749929,0,0,2.0999147,3.9999993,-1.597702)">
  <path style="fill:#fec006" d="M 16,6 9.1429,15.524 0,6 l 1.1429,20 29.714,0 1.143,-20 -9.143,9.524 z"/>
 </g>
 <rect style="fill:#e82d2d" width="5" height="5" x="15.62" y="64.37" transform="matrix(0.60000002,-0.79999999,0.60000002,0.79999999,0,0)"/>
 <rect style="fill:#e82d2d" width="7.212" height="7.212" x="2.04" y="48.44" transform="matrix(0.55470022,-0.83205028,0.55470022,0.83205028,0,0)"/>
 <rect style="fill:#e82d2d" width="5" height="5" x="-16.04" y="32.72" transform="matrix(0.60000002,-0.79999999,0.60000002,0.79999999,0,0)"/>
 <g style="fill:#ffffff;opacity:0.2" transform="matrix(1.749929,0,0,2.0999147,3.9999993,-1.597702)">
  <path style="fill:#ffffff" d="M 4 11.001953 L 4.0507812 12.064453 L 20 32.001953 L 31.998047 12.001953 L 43.998047 32.001953 L 59.947266 12.064453 L 59.998047 11.001953 L 43.998047 31.001953 L 31.998047 11.001953 L 20 31.001953 L 4 11.001953 z" transform="matrix(0.57145176,0,0,0.47620982,-2.2858066,0.76084138)"/>
 </g>
</svg>
